X: 35259
T: Rose Anne's
R: polka
M: 2/4
K: Gmajor
|:D/|G2 GB|A>^G AB|G>F G/A/B|dg- g>e|
G>F GB|A/B/A/^G/ AB|G/A/G/E/ D/E/F|[C2G2c2]- [C3/2G3/2c3/2]:|
|:e/|dG- GB|A/B/A/G/ E/F/G/B/|dG GB|dg gf/e/|
dG GB|A>G E/F/G/B/|A/B/A/G/ ED|[C2G2c2]- [C3/2G3/2c3/2]:|

